src/OnboardingSPA/static/icons/heart-white.svg

<svg fill="none" height="17" viewBox="0 0 18 17" width="18" xmlns="http://www.w3.org/2000/svg"><path d="m12.5 1.7c-1.2986 0-2.6288.59422-3.5 1.57092-.8712-.9767-2.20141-1.57092-3.5-1.57092-2.38931 0-4.3 1.96978-4.3 4.36757 0 1.88795 1.11462 3.66952 2.50511 5.17043 1.41054 1.5226 3.22165 2.8819 4.86275 3.9352.26331.1691.60097.1691.86428 0 1.64106-1.0533 3.45216-2.4126 4.86276-3.9352 1.3905-1.50091 2.5051-3.28248 2.5051-5.17043 0-2.39779-1.9107-4.36757-4.3-4.36757z" stroke="#fff" stroke-linecap="round" stroke-linejoin="round" stroke-width="1.6"/></svg>

<svg width="18" height="17" viewBox="0 0 18 17" fill="none" xmlns="http://www.w3.org/2000/svg">
<path id="Path" d="M12.5 1.7C11.2014 1.7 9.8712 2.29422 9 3.27092C8.1288 2.29422 6.79859 1.7 5.5 1.7C3.11069 1.7 1.2 3.66978 1.2 6.06757C1.2 7.95552 2.31462 9.73709 3.70511 11.238C5.11565 12.7606 6.92676 14.1199 8.56786 15.1732C8.83117 15.3423 9.16883 15.3423 9.43214 15.1732C11.0732 14.1199 12.8843 12.7606 14.2949 11.238C15.6854 9.73709 16.8 7.95552 16.8 6.06757C16.8 3.66978 14.8893 1.7 12.5 1.7Z" stroke="white" stroke-width="1.6" stroke-linecap="round" stroke-linejoin="round"/>
</svg>
